X: 2
T: Little Liza Jane
R: Reel
M: 4/4
Q: 200
L: 1/8
K: A
(3efg|:"A"a2 f2 e3 e|fecB A2 (3efg|a2 f2 e2 c2|"F#m"f3 gf2 (3efg|
"A"a2 f2 e3 e|"D"fecB A4|"Bm"cBAF "E"E2 F2|"A"A6 :||:"A"B c2 B c3 A|"D"B2 A4 A2|
"A"B c2 B cB A2|"F#m"F6 E2|"D"F2 A2 "E"B3 A|"A"B c3 "F#m"B3 A|"Bm"cBAF "E"E2 F2|"A"A6 A2:|]

